assets/images/index/carro-1-cinza.svg

<svg version="1.1" id="Camada_1" xmlns="http://www.w3.org/2000/svg" x="0" y="0" viewBox="0 0 250 91.8" xml:space="preserve"><style>.st0{fill:#dcdee9}</style><g id="sedan-car-model" transform="translate(.001 -31.876)"><g id="Grupo_11" transform="translate(-.001 31.876)"><path id="Caminho_16" class="st0" d="M44.8 52.2c-10.2 0-18.6 8.3-18.6 18.6 0 .8.1 1.6.2 2.3C27.7 83.3 37 90.5 47.1 89.2c8.7-1.1 15.4-8.1 16.1-16.8 0-.5.1-1 .1-1.6.1-10.2-8.2-18.6-18.5-18.6zm-9.3 11.6l3.8 3.8c-.3.5-.5 1.1-.7 1.6h-5.3c.3-1.9 1-3.8 2.2-5.4zm-2.2 8.6h5.4c.1.6.4 1.1.7 1.6l-3.8 3.8c-1.3-1.5-2-3.4-2.3-5.4zm9.9 9.9c-2-.3-3.8-1-5.4-2.2l3.8-3.8c.5.3 1 .5 1.6.7v5.3zm0-17.7c-.6.2-1.1.4-1.6.7l-3.8-3.8c1.6-1.2 3.5-2 5.4-2.2v5.3zm3.2-5.3c2 .3 3.8 1 5.4 2.2L48 65.3c-.5-.3-1.1-.5-1.6-.7v-5.3zm0 23V77c.6-.1 1.1-.4 1.6-.7l3.8 3.8c-1.6 1.2-3.4 1.9-5.4 2.2zm7.7-4.4L50.3 74c.3-.5.5-1 .7-1.6h5.3c-.2 2-1 3.9-2.2 5.5zM51 69.2c-.1-.6-.4-1.1-.7-1.6l3.8-3.8c1.2 1.6 2 3.5 2.2 5.4H51z"/><path id="Caminho_17" class="st0" d="M198.9 52.2c-10.2 0-18.6 8.3-18.6 18.6 0 .8.1 1.6.2 2.3 1.3 10.2 10.6 17.4 20.7 16.1 8.7-1.1 15.4-8.1 16.2-16.8 0-.5.1-1 .1-1.6-.1-10.2-8.4-18.6-18.6-18.6zm-9.3 11.6l3.8 3.8c-.3.5-.5 1.1-.7 1.6h-5.3c.2-1.9 1-3.8 2.2-5.4zm-2.2 8.6h5.4c.1.6.4 1.1.7 1.6l-3.8 3.8c-1.3-1.5-2.1-3.4-2.3-5.4zm9.9 9.9c-2-.3-3.8-1-5.4-2.2l3.8-3.8c.5.3 1 .5 1.6.7v5.3zm0-17.7c-.6.2-1.1.4-1.6.7l-3.8-3.8c1.6-1.2 3.4-2 5.4-2.2v5.3zm3.2-5.3c2 .3 3.8 1 5.4 2.2l-3.8 3.8c-.5-.3-1.1-.5-1.6-.7v-5.3zm0 23V77c.6-.1 1.1-.4 1.6-.7l3.8 3.8c-1.6 1.2-3.4 1.9-5.4 2.2zm7.7-4.4l-3.8-3.8c.3-.5.5-1 .7-1.6h5.3c-.3 1.9-1 3.8-2.2 5.4zm-3.1-8.7c-.1-.6-.4-1.1-.7-1.6l3.8-3.8c1.2 1.6 2 3.5 2.2 5.4h-5.3z"/><path id="Caminho_18" class="st0" d="M243.4 42.6V28.9c0-2.2-1.6-4.1-3.8-4.4-5.2-.8-14.5-2.4-18.7-3.7-6-1.8-29.1-11.6-37.1-13.5s-44.1-11.6-78.6.3c-5.8 2-32.1 14.6-47.6 21.1-4.6.1-49.6 9.5-52 15.9C4.2 48.4 3 52.2 2 56c-.4 1.6 0 9.5 3.3 14.9 3.4 1.9 10 3.2 17.6 4.1-.1-.5-.2-.9-.2-1.4-.1-.9-.2-1.9-.2-2.8 0-12.3 10-22.3 22.3-22.3s22.3 10 22.3 22.3c0 .6 0 1.3-.1 1.9-.1 1.4-.4 2.7-.7 4h.1L177 74.5c0-.3-.1-.6-.2-.9-.1-.9-.2-1.9-.2-2.8.1-12.3 10.1-22.2 22.4-22.2 12.2.1 22.1 10 22.2 22.2v.1h.5l18.9-3.6s7.2-3.9 7.2-14.5c0-7-4.4-10.2-4.4-10.2zm-109.7-13l-41.3 1.3c.8-6.2-2.9-7.6-2.9-7.6C105.9 8.4 139 7.9 139 7.9l-5.3 21.7zm46.4-1.9L142.4 29l3.4-21.1c19.5-.3 30.6 4 30.6 4l5.6 9-1.9 6.8zm21.2-.1h-10.5l-10.5-14.4c7.9 3.1 14.2 6.2 17.9 8.2 2.3 1.1 3.6 3.7 3.1 6.2z"/></g></g></svg>

<?xml version="1.0" encoding="utf-8"?>
<!-- Generator: Adobe Illustrator 25.2.1, SVG Export Plug-In . SVG Version: 6.00 Build 0)  -->
<svg version="1.1" id="Camada_1" xmlns="http://www.w3.org/2000/svg" xmlns:xlink="http://www.w3.org/1999/xlink" x="0px" y="0px"
	 viewBox="0 0 250 91.8" style="enable-background:new 0 0 250 91.8;" xml:space="preserve">
<style type="text/css">
	.st0{fill:#DCDEE9;}
</style>
<g id="sedan-car-model" transform="translate(0.001 -31.876)">
	<g id="Grupo_11" transform="translate(-0.001 31.876)">
		<path id="Caminho_16" class="st0" d="M44.8,52.2c-10.2,0-18.6,8.3-18.6,18.6c0,0,0,0,0,0c0,0.8,0.1,1.6,0.2,2.3
			C27.7,83.3,37,90.5,47.1,89.2c8.7-1.1,15.4-8.1,16.1-16.8c0-0.5,0.1-1,0.1-1.6C63.4,60.6,55.1,52.2,44.8,52.2
			C44.8,52.2,44.8,52.2,44.8,52.2z M35.5,63.8l3.8,3.8c-0.3,0.5-0.5,1.1-0.7,1.6h-5.3C33.6,67.3,34.3,65.4,35.5,63.8z M33.3,72.4
			h5.4c0.1,0.6,0.4,1.1,0.7,1.6l-3.8,3.8C34.3,76.3,33.6,74.4,33.3,72.4z M43.2,82.3c-2-0.3-3.8-1-5.4-2.2l3.8-3.8
			c0.5,0.3,1,0.5,1.6,0.7V82.3z M43.2,64.6c-0.6,0.2-1.1,0.4-1.6,0.7l-3.8-3.8c1.6-1.2,3.5-2,5.4-2.2V64.6z M46.4,59.3
			c2,0.3,3.8,1,5.4,2.2l-3.8,3.8c-0.5-0.3-1.1-0.5-1.6-0.7L46.4,59.3L46.4,59.3z M46.4,82.3V77c0.6-0.1,1.1-0.4,1.6-0.7l3.8,3.8
			C50.2,81.3,48.4,82,46.4,82.3L46.4,82.3z M54.1,77.9L50.3,74c0.3-0.5,0.5-1,0.7-1.6h5.3C56.1,74.4,55.3,76.3,54.1,77.9L54.1,77.9z
			 M51,69.2c-0.1-0.6-0.4-1.1-0.7-1.6l3.8-3.8c1.2,1.6,2,3.5,2.2,5.4L51,69.2L51,69.2z"/>
		<path id="Caminho_17" class="st0" d="M198.9,52.2c-10.2,0-18.6,8.3-18.6,18.6c0,0,0,0,0,0c0,0.8,0.1,1.6,0.2,2.3
			c1.3,10.2,10.6,17.4,20.7,16.1c8.7-1.1,15.4-8.1,16.2-16.8c0-0.5,0.1-1,0.1-1.6C217.4,60.6,209.1,52.2,198.9,52.2
			C198.9,52.2,198.9,52.2,198.9,52.2z M189.6,63.8l3.8,3.8c-0.3,0.5-0.5,1.1-0.7,1.6h-5.3C187.6,67.3,188.4,65.4,189.6,63.8z
			 M187.4,72.4h5.4c0.1,0.6,0.4,1.1,0.7,1.6l-3.8,3.8C188.4,76.3,187.6,74.4,187.4,72.4z M197.3,82.3c-2-0.3-3.8-1-5.4-2.2l3.8-3.8
			c0.5,0.3,1,0.5,1.6,0.7V82.3z M197.3,64.6c-0.6,0.2-1.1,0.4-1.6,0.7l-3.8-3.8c1.6-1.2,3.4-2,5.4-2.2L197.3,64.6L197.3,64.6z
			 M200.5,59.3c2,0.3,3.8,1,5.4,2.2l-3.8,3.8c-0.5-0.3-1.1-0.5-1.6-0.7L200.5,59.3L200.5,59.3z M200.5,82.3V77
			c0.6-0.1,1.1-0.4,1.6-0.7l3.8,3.8C204.3,81.3,202.5,82,200.5,82.3L200.5,82.3z M208.2,77.9l-3.8-3.8c0.3-0.5,0.5-1,0.7-1.6h5.3
			C210.1,74.4,209.4,76.3,208.2,77.9L208.2,77.9z M205.1,69.2c-0.1-0.6-0.4-1.1-0.7-1.6l3.8-3.8c1.2,1.6,2,3.5,2.2,5.4L205.1,69.2
			L205.1,69.2z"/>
		<path id="Caminho_18" class="st0" d="M243.4,42.6V28.9c0-2.2-1.6-4.1-3.8-4.4c-5.2-0.8-14.5-2.4-18.7-3.7
			c-6-1.8-29.1-11.6-37.1-13.5s-44.1-11.6-78.6,0.3c-5.8,2-32.1,14.6-47.6,21.1c-4.6,0.1-49.6,9.5-52,15.9C4.2,48.4,3,52.2,2,56
			c-0.4,1.6,0,9.5,3.3,14.9c3.4,1.9,10,3.2,17.6,4.1c-0.1-0.5-0.2-0.9-0.2-1.4c-0.1-0.9-0.2-1.9-0.2-2.8c0-12.3,10-22.3,22.3-22.3
			s22.3,10,22.3,22.3c0,0.6,0,1.3-0.1,1.9c-0.1,1.4-0.4,2.7-0.7,4h0.1L177,74.5c0-0.3-0.1-0.6-0.2-0.9c-0.1-0.9-0.2-1.9-0.2-2.8
			c0.1-12.3,10.1-22.2,22.4-22.2c12.2,0.1,22.1,10,22.2,22.2c0,0,0,0.1,0,0.1l0.5,0l18.9-3.6c0,0,7.2-3.9,7.2-14.5
			C247.8,45.8,243.4,42.6,243.4,42.6z M133.7,29.6l-41.3,1.3c0.8-6.2-2.9-7.6-2.9-7.6C105.9,8.4,139,7.9,139,7.9L133.7,29.6z
			 M180.1,27.7L142.4,29l3.4-21.1c19.5-0.3,30.6,4,30.6,4l5.6,9L180.1,27.7z M201.3,27.6h-10.5l-10.5-14.4
			c7.9,3.1,14.2,6.2,17.9,8.2C200.5,22.5,201.8,25.1,201.3,27.6L201.3,27.6z"/>
	</g>
</g>
</svg>
